X:308
T:Beaux of London City - Adderbury
M:9/8
K:G
D | G2G BAG BdD | G2G BAG A2D | G2G BAG BdD | GDG B2A G2 :|
d2c BAG Bd2 | A2A A2B c3 | d2c BAG BdD | GDG B2A G2 :||
